X: 2398
T: Baldy Hollow
R: jig
M: 6/8
K: Adorian
|:~A3 G2E-|E2A G2E|c~c2 BAG|GAA G2E|
~A3 G2E|~A3 G2E|c~c2 BAG|EAe-ez2:|
|:eff fgg|gaB-Bef|gBb bag|fgc-cBA|EBB eBf|
gBa gfe|1 bag fBf|e3 efg:|2 cBA GAF|E3-EFG||

